X:34
T:Johnnie Cope
C:arr. Carlo Minasi
M:C
L:1/8
B:Chappell's One Hundred Scotch Melodies
B:Arranged for the Concertina by Carlo Minasi
Q:"Spiritoso  "1/4=140
Z:Peter Dunk 2012
K:Bb
!p!DF|L[G2D2B,2].G2.G2 (Ac)|L[d2B2G2].G2.G2 (FD)|\
L[F2C2A,2].F2 FGAB|Bd[c=E]B [A2F2] GF|
[B3D3] B [c2A2F2]c2|"_cres."([d2B2]f2[A2F2D2]) (GF|\
D2)f2 ([d^F]cBA)|[G4B,4][G2B,2]||
GA &E2|B2B2 BFDF &D2D2 D x3|(Bcde f2) (cB)|\
[A2F2] (GF) c2F2|ABcd c2 BA|
BABc dcdg|fd[cE]B H[A2F2] GF|\
D2f2 [d^F]cBA|[G4B,4][G2B,2]||

